public/assets/images/brand/07.svg

<svg width="97" height="29" viewBox="0 0 97 29" fill="none" xmlns="http://www.w3.org/2000/svg">
<g clip-path="url(#clip0_903_22343)">
<path d="M14.5472 0C6.51364 0 0 6.49322 0 14.5016C0 22.51 6.51364 29.0033 14.5472 29.0033C22.5808 29.0033 29.0945 22.51 29.0945 14.5016C29.0912 6.49322 22.5808 0 14.5472 0ZM21.2174 20.9136C20.9565 21.3395 20.3987 21.4761 19.9715 21.2127C16.5564 19.1317 12.2575 18.6603 7.19207 19.8146C6.70281 19.9251 6.21682 19.6227 6.10592 19.135C5.99502 18.6473 6.29836 18.1628 6.78762 18.0522C12.3293 16.7907 17.0816 17.3369 20.9173 19.6715C21.3446 19.9316 21.4784 20.4876 21.2174 20.9136ZM22.9983 16.9663C22.6689 17.4995 21.9709 17.6653 21.4392 17.3369C17.5317 14.9406 11.5693 14.248 6.94418 15.6462C6.34403 15.8282 5.71125 15.4901 5.5286 14.8918C5.34921 14.2935 5.68516 13.6627 6.28532 13.4807C11.5693 11.8842 18.1351 12.658 22.6265 15.4088C23.1581 15.7404 23.3245 16.4363 22.9983 16.9663ZM23.1516 12.8531C18.4613 10.0796 10.7278 9.82274 6.2527 11.1786C5.53512 11.3965 4.77514 10.99 4.55661 10.2747C4.33807 9.55937 4.74579 8.80177 5.46336 8.58392C10.6006 7.02971 19.143 7.32885 24.5411 10.5251C25.1869 10.9087 25.3989 11.7411 25.0173 12.3849C24.6324 13.0255 23.7942 13.2368 23.1516 12.8531ZM39.5743 13.3864C37.0628 12.7881 36.616 12.3687 36.616 11.4908C36.616 10.6584 37.402 10.0991 38.5697 10.0991C39.7015 10.0991 40.8268 10.5251 42.001 11.3997C42.0369 11.4257 42.0826 11.4355 42.125 11.429C42.1674 11.4225 42.2065 11.3997 42.2326 11.3607L43.459 9.6374C43.508 9.56587 43.4949 9.46833 43.4264 9.41305C42.0239 8.29129 40.4485 7.74829 38.6023 7.74829C35.8919 7.74829 33.9968 9.37078 33.9968 11.6923C33.9968 14.183 35.6309 15.0641 38.4556 15.7437C40.8594 16.2964 41.2639 16.7582 41.2639 17.584C41.2639 18.501 40.4452 19.07 39.1242 19.07C37.6597 19.07 36.4627 18.579 35.1254 17.4215C35.0927 17.3922 35.0471 17.3792 35.0047 17.3824C34.959 17.3857 34.9199 17.4052 34.8905 17.441L33.5141 19.0732C33.4554 19.1415 33.4651 19.2423 33.5304 19.3008C35.0862 20.686 37.0008 21.4175 39.0655 21.4175C41.988 21.4175 43.8765 19.8243 43.8765 17.3629C43.883 15.282 42.6338 14.131 39.5743 13.3896V13.3864ZM50.4945 10.9185C49.229 10.9185 48.1885 11.416 47.3339 12.4337V11.2859C47.3339 11.1949 47.2589 11.1201 47.1709 11.1201H44.9235C44.8322 11.1201 44.7605 11.1949 44.7605 11.2859V24.0317C44.7605 24.1228 44.8355 24.1976 44.9235 24.1976H47.1709C47.2622 24.1976 47.3339 24.1228 47.3339 24.0317V20.0096C48.1918 20.9688 49.229 21.437 50.4945 21.437C52.8495 21.437 55.2305 19.6325 55.2305 16.1794C55.2338 12.7231 52.8495 10.9185 50.4945 10.9185ZM52.6146 16.1761C52.6146 17.9352 51.5285 19.161 49.9727 19.161C48.4364 19.161 47.2752 17.8799 47.2752 16.1761C47.2752 14.4756 48.4364 13.1913 49.9727 13.1913C51.5024 13.1913 52.6146 14.4464 52.6146 16.1761ZM61.3365 10.9185C58.3063 10.9185 55.9318 13.2466 55.9318 16.2152C55.9318 19.1545 58.29 21.4566 61.3006 21.4566C64.3438 21.4566 66.7248 19.1382 66.7248 16.1794C66.7215 13.227 64.3568 10.9185 61.3365 10.9185ZM61.3365 19.1805C59.7252 19.1805 58.5086 17.8897 58.5086 16.1761C58.5086 14.4561 59.6828 13.2108 61.2973 13.2108C62.9184 13.2108 64.1448 14.5016 64.1448 16.2152C64.1448 17.9319 62.9641 19.1805 61.3365 19.1805ZM73.196 11.1233H70.7204V8.60018C70.7204 8.50914 70.6486 8.43761 70.5573 8.43761H68.31C68.2187 8.43761 68.1437 8.51239 68.1437 8.60018V11.1233H67.0608C66.9694 11.1233 66.8977 11.1981 66.8977 11.2892V13.2173C66.8977 13.3083 66.9694 13.3831 67.0608 13.3831H68.1437V18.3676C68.1437 20.3836 69.1483 21.4045 71.1346 21.4045C71.9403 21.4045 72.6122 21.2387 73.2417 20.881C73.2939 20.8518 73.3232 20.7965 73.3232 20.738V18.9041C73.3232 18.8489 73.2939 18.7936 73.245 18.7643C73.196 18.7351 73.1341 18.7318 73.0851 18.7578C72.6513 18.9757 72.2338 19.0765 71.7642 19.0765C71.0433 19.0765 70.7204 18.7513 70.7204 18.0165V13.3799H73.196C73.2874 13.3799 73.3591 13.3051 73.3591 13.214V11.2859C73.3624 11.1981 73.2906 11.1233 73.196 11.1233ZM81.8167 11.1331V10.8242C81.8167 9.91378 82.1657 9.50734 82.9518 9.50734C83.4215 9.50734 83.7966 9.60164 84.2174 9.74145C84.2695 9.75771 84.325 9.75121 84.3641 9.71869C84.4065 9.68618 84.4326 9.6374 84.4326 9.58538V7.69627C84.4326 7.62473 84.387 7.5597 84.3152 7.5402C83.8684 7.40688 83.3008 7.27357 82.4463 7.27357C80.3685 7.27357 79.2726 8.44086 79.2726 10.6454V11.1201H78.193C78.1017 11.1201 78.0266 11.1949 78.0266 11.2827V13.2205C78.0266 13.3116 78.1017 13.3864 78.193 13.3864H79.2726V21.0761C79.2726 21.1672 79.3444 21.242 79.4357 21.242H81.683C81.7743 21.242 81.8494 21.1672 81.8494 21.0761V13.3766H83.9499L87.1659 21.0631C86.8006 21.8695 86.4418 22.0321 85.9526 22.0321C85.5579 22.0321 85.1404 21.915 84.7131 21.6809C84.674 21.6581 84.6251 21.6549 84.5827 21.6679C84.5403 21.6842 84.5044 21.7134 84.4848 21.7557L83.7216 23.4237C83.6857 23.5017 83.7151 23.596 83.7933 23.6351C84.5892 24.0642 85.3068 24.2496 86.194 24.2496C87.8542 24.2496 88.774 23.479 89.5829 21.4045L93.4839 11.3542C93.5035 11.3022 93.4969 11.2469 93.4676 11.2014C93.4382 11.1558 93.386 11.1298 93.3338 11.1298H90.9919C90.9202 11.1298 90.8582 11.1754 90.8354 11.2404L88.438 18.0685L85.8123 11.2339C85.7895 11.1689 85.7275 11.1298 85.659 11.1298L81.8167 11.1331ZM76.8198 11.1233H74.5725C74.4812 11.1233 74.4061 11.1981 74.4061 11.2892V21.0696C74.4061 21.1607 74.4812 21.2355 74.5725 21.2355H76.8198C76.9111 21.2355 76.9862 21.1607 76.9862 21.0696V11.2859C76.9862 11.2436 76.9698 11.2014 76.9372 11.1689C76.9046 11.1396 76.8622 11.1233 76.8198 11.1233ZM75.7076 6.6688C74.8171 6.6688 74.093 7.38738 74.093 8.27503C74.093 9.16269 74.8171 9.88452 75.7076 9.88452C76.598 9.88452 77.3188 9.16594 77.3188 8.27503C77.3188 7.38738 76.598 6.6688 75.7076 6.6688ZM95.4083 14.2675C94.5178 14.2675 93.8264 13.5554 93.8264 12.6905C93.8264 11.8257 94.5276 11.1038 95.4181 11.1038C96.3085 11.1038 97 11.8159 97 12.6808C97 13.5457 96.2955 14.2675 95.4083 14.2675ZM95.4181 11.2599C94.6059 11.2599 93.9927 11.9037 93.9927 12.6905C93.9927 13.4774 94.6026 14.1114 95.4083 14.1114C96.2172 14.1114 96.8337 13.4709 96.8337 12.6808C96.8337 11.8939 96.2237 11.2599 95.4181 11.2599ZM95.7671 12.8434L96.2139 13.4677H95.8356L95.4311 12.8954H95.0854V13.4677H94.769V11.8126H95.5094C95.8943 11.8126 96.1487 12.011 96.1487 12.3394C96.1552 12.6125 95.9954 12.7783 95.7671 12.8434ZM95.4996 12.0955H95.0886V12.619H95.4996C95.7051 12.619 95.829 12.5182 95.829 12.3556C95.829 12.1866 95.7051 12.0955 95.4996 12.0955Z" fill="#EAF0FF"/>
</g>
<defs>
<clipPath id="clip0_903_22343">
<rect width="97" height="29" fill="white"/>
</clipPath>
</defs>
</svg>

<svg xmlns="http://www.w3.org/2000/svg" width="97" height="29" fill="none" viewBox="0 0 97 29"><g clip-path="url(#a)"><path fill="#eaf0ff" d="M14.547 0C6.514 0 0 6.493 0 14.502c0 8.008 6.514 14.501 14.547 14.501s14.548-6.493 14.548-14.501C29.09 6.493 22.58 0 14.547 0m6.67 20.914a.905.905 0 0 1-1.245.299c-3.416-2.081-7.715-2.553-12.78-1.398a.906.906 0 0 1-1.086-.68.903.903 0 0 1 .682-1.083c5.541-1.261 10.294-.715 14.13 1.62.427.26.56.816.3 1.242m1.781-3.948a1.133 1.133 0 0 1-1.559.37c-3.907-2.395-9.87-3.088-14.495-1.69a1.133 1.133 0 1 1-.659-2.165c5.284-1.597 11.85-.823 16.342 1.928.531.331.698 1.027.371 1.557m.154-4.113c-4.69-2.773-12.424-3.03-16.9-1.674a1.36 1.36 0 0 1-1.695-.904 1.356 1.356 0 0 1 .906-1.691c5.138-1.554 13.68-1.255 19.078 1.941.646.384.858 1.216.476 1.86a1.366 1.366 0 0 1-1.865.468m16.422.533c-2.511-.598-2.958-1.017-2.958-1.895 0-.833.786-1.392 1.954-1.392 1.132 0 2.257.426 3.431 1.3a.17.17 0 0 0 .124.03.16.16 0 0 0 .108-.068l1.226-1.724a.167.167 0 0 0-.033-.224c-1.402-1.122-2.977-1.665-4.824-1.665-2.71 0-4.605 1.623-4.605 3.944 0 2.491 1.634 3.372 4.459 4.052 2.403.552 2.808 1.014 2.808 1.84 0 .917-.819 1.486-2.14 1.486-1.464 0-2.661-.491-3.999-1.648a.17.17 0 0 0-.12-.04.16.16 0 0 0-.114.059l-1.377 1.632a.163.163 0 0 0 .016.228c1.556 1.385 3.47 2.117 5.535 2.117 2.923 0 4.812-1.594 4.812-4.055.006-2.081-1.243-3.232-4.303-3.973zm10.92-2.467c-1.265 0-2.306.497-3.16 1.515v-1.148a.166.166 0 0 0-.163-.166h-2.248a.164.164 0 0 0-.163.166v12.746c0 .09.076.166.163.166h2.248a.164.164 0 0 0 .163-.166V20.01c.858.959 1.895 1.427 3.16 1.427 2.355 0 4.736-1.805 4.736-5.258.004-3.456-2.38-5.26-4.735-5.26m2.12 5.257c0 1.76-1.085 2.985-2.641 2.985-1.537 0-2.698-1.281-2.698-2.985 0-1.7 1.161-2.985 2.698-2.985 1.53 0 2.642 1.255 2.642 2.985m8.723-5.257c-3.03 0-5.405 2.328-5.405 5.296 0 2.94 2.358 5.242 5.369 5.242 3.043 0 5.424-2.319 5.424-5.278-.003-2.952-2.368-5.26-5.388-5.26m0 8.261c-1.612 0-2.828-1.29-2.828-3.004 0-1.72 1.174-2.965 2.788-2.965 1.621 0 2.848 1.29 2.848 3.004 0 1.717-1.18 2.965-2.808 2.965m11.859-8.057H70.72V8.6a.16.16 0 0 0-.163-.162H68.31a.166.166 0 0 0-.166.162v2.523H67.06a.164.164 0 0 0-.163.166v1.928c0 .091.071.166.163.166h1.083v4.985c0 2.016 1.004 3.037 2.99 3.037.806 0 1.478-.166 2.108-.524a.16.16 0 0 0 .081-.143v-1.834c0-.055-.03-.11-.078-.14a.17.17 0 0 0-.16-.006 2.84 2.84 0 0 1-1.32.319c-.722 0-1.045-.326-1.045-1.06V13.38h2.476a.164.164 0 0 0 .163-.166v-1.928a.16.16 0 0 0-.163-.163m8.62.01v-.309c0-.91.35-1.317 1.136-1.317.47 0 .845.095 1.265.234.052.017.108.01.147-.022a.17.17 0 0 0 .069-.134V7.696a.16.16 0 0 0-.118-.156 6.2 6.2 0 0 0-1.869-.266c-2.078 0-3.173 1.167-3.173 3.371v.475h-1.08a.166.166 0 0 0-.166.163v1.938c0 .09.075.165.166.165h1.08v7.69c0 .091.071.166.163.166h2.247a.167.167 0 0 0 .166-.166v-7.7h2.1l3.217 7.687c-.365.806-.724.97-1.213.97-.395 0-.813-.118-1.24-.352a.17.17 0 0 0-.13-.013.17.17 0 0 0-.098.088l-.763 1.668a.16.16 0 0 0 .071.211c.796.43 1.514.615 2.401.615 1.66 0 2.58-.771 3.389-2.846l3.9-10.05a.17.17 0 0 0-.015-.153.16.16 0 0 0-.134-.071h-2.342a.17.17 0 0 0-.157.11l-2.397 6.829-2.626-6.835a.16.16 0 0 0-.153-.104zm-4.996-.01h-2.247a.167.167 0 0 0-.167.166v9.78c0 .092.075.166.166.166h2.248a.167.167 0 0 0 .166-.165v-9.784a.17.17 0 0 0-.049-.117.18.18 0 0 0-.117-.046M75.708 6.67a1.61 1.61 0 0 0-1.615 1.606 1.614 1.614 0 0 0 3.226 0c0-.888-.721-1.606-1.611-1.606m19.7 7.599c-.89 0-1.582-.713-1.582-1.578a1.59 1.59 0 0 1 1.592-1.586c.89 0 1.582.712 1.582 1.577s-.704 1.587-1.592 1.587m.01-3.008c-.812 0-1.425.644-1.425 1.43 0 .787.61 1.421 1.415 1.421.81 0 1.426-.64 1.426-1.43 0-.787-.61-1.421-1.416-1.421m.35 1.583.446.625h-.378l-.405-.573h-.346v.573h-.316v-1.655h.74c.385 0 .64.198.64.526.006.274-.154.44-.382.504m-.268-.748h-.411v.524h.41c.206 0 .33-.1.33-.263 0-.17-.124-.26-.33-.26"/></g><defs><clipPath id="a"><path fill="#fff" d="M0 0h97v29H0z"/></clipPath></defs></svg>
